usr/share/icons/biglinux-icons-material/scalable/mimetypes/stock_addressbook.svg

<svg width="24" height="24" viewBox="0 0 24 24" fill="none" xmlns="http://www.w3.org/2000/svg">
<rect x="1" y="1" width="22" height="22" rx="6.6" fill="url(#paint0_radial_21_1121)"/>
<path d="M20 10.6008C20 11.7234 19.822 12.7405 19.466 13.652C19.1165 14.557 18.6266 15.2566 17.9964 15.7508C17.371 16.2467 16.6695 16.4946 15.8918 16.4946C15.2856 16.4946 14.8166 16.3613 14.4847 16.0945C14.1543 15.8294 13.9892 15.4317 13.9892 14.9015L14.0156 14.2657H13.9603C13.5562 15.0087 13.0543 15.5676 12.4546 15.9423C11.8613 16.3105 11.2183 16.4946 10.5256 16.4946C9.56344 16.4946 8.81539 16.187 8.28142 15.5716C7.75546 14.9547 7.49248 14.1004 7.49248 13.0089C7.49248 12.0188 7.68811 11.0983 8.07938 10.2473C8.47865 9.39634 9.03347 8.71965 9.74384 8.21724C10.4542 7.71648 11.2415 7.46609 12.1058 7.46609C13.4464 7.46609 14.3684 8.01596 14.8719 9.11568H14.9272L15.2856 7.66738H16.7192L15.6512 12.2479C15.4267 13.238 15.3145 14.0014 15.3145 14.5382C15.3145 15.1061 15.5622 15.39 16.0577 15.39C16.5468 15.39 16.9966 15.1813 17.4071 14.764C17.824 14.3484 18.1519 13.7756 18.3909 13.0457C18.6298 12.3142 18.7492 11.5041 18.7492 10.6155C18.7492 9.53544 18.5135 8.57973 18.0421 7.74839C17.5707 6.90887 16.8908 6.26572 16.0024 5.81896C15.1141 5.36565 14.075 5.139 12.8851 5.139C11.4035 5.139 10.0926 5.46221 8.9525 6.10862C7.81399 6.75504 6.92002 7.68784 6.27059 8.90703C5.62117 10.1197 5.29645 11.4804 5.29645 12.9893C5.29645 14.1544 5.53538 15.1838 6.01323 16.0773C6.49589 16.9643 7.19102 17.6467 8.09862 18.1246C9.01263 18.6008 10.0758 18.8389 11.288 18.8389C12.1764 18.8389 13.0768 18.7244 13.9892 18.4952C14.9032 18.271 15.8493 17.8971 16.8274 17.3734L17.3325 18.3872C16.4458 18.9109 15.4813 19.3094 14.439 19.5827C13.4031 19.8609 12.3528 20 11.288 20C9.81118 20 8.51794 19.7095 7.4083 19.1286C6.30667 18.5558 5.46162 17.7375 4.87312 16.6738C4.29104 15.6068 4 14.3795 4 12.9917C4 11.3012 4.38004 9.76455 5.14011 8.38171C5.90499 6.99887 6.96492 5.92452 8.3199 5.15864C9.67328 4.38621 11.1886 4 12.8659 4C14.3444 4 15.6192 4.27411 16.6903 4.82234C17.7631 5.36565 18.5809 6.13481 19.1437 7.12979C19.7146 8.12806 20 9.28506 20 10.6008ZM14.4293 10.6744C14.4293 10.0575 14.2273 9.56162 13.8232 9.18687C13.4191 8.8072 12.8803 8.61737 12.2069 8.61737C11.5879 8.61737 11.0363 8.81047 10.552 9.19669C10.0742 9.57635 9.69733 10.1074 9.42153 10.7898C9.14572 11.4657 9.00782 12.1988 9.00782 12.9893C9.00782 13.7142 9.15214 14.2821 9.44077 14.6929C9.73422 15.102 10.184 15.3065 10.7901 15.3065C11.5566 15.3065 12.2582 14.9899 12.8948 14.3566C13.533 13.7232 13.9739 12.9328 14.2177 11.9853C14.3588 11.4289 14.4293 10.9936 14.4293 10.6744Z" fill="white"/>
<defs>
<radialGradient id="paint0_radial_21_1121" cx="0" cy="0" r="1" gradientUnits="userSpaceOnUse" gradientTransform="translate(17.5 1) rotate(116.565) scale(24.5967)">
<stop stop-color="#85C1EA"/>
<stop offset="1" stop-color="#3C90C9"/>
</radialGradient>
</defs>
</svg>

<svg xmlns="http://www.w3.org/2000/svg" width="24" height="24" fill="none"><rect width="22" height="22" x="1" y="1" fill="url(#a)" rx="6.6"/><path fill="#fff" d="M20 10.6c0 1.123-.178 2.14-.534 3.052-.35.905-.84 1.605-1.47 2.099a3.301 3.301 0 0 1-2.104.744c-.606 0-1.075-.134-1.407-.4-.33-.266-.496-.663-.496-1.193l.027-.636h-.056c-.404.743-.906 1.302-1.505 1.676a3.59 3.59 0 0 1-1.93.553c-.962 0-1.71-.308-2.244-.923-.526-.617-.789-1.472-.789-2.563 0-.99.196-1.91.587-2.762.4-.85.954-1.527 1.665-2.03.71-.5 1.498-.75 2.362-.75 1.34 0 2.262.549 2.766 1.649h.055l.359-1.449h1.433l-1.068 4.58c-.224.991-.336 1.754-.336 2.291 0 .568.247.852.743.852.489 0 .939-.209 1.35-.626.416-.416.744-.988.983-1.718.239-.732.358-1.542.358-2.43 0-1.08-.235-2.036-.707-2.868a4.702 4.702 0 0 0-2.04-1.929c-.888-.453-1.927-.68-3.117-.68-1.482 0-2.792.323-3.932.97-1.139.646-2.033 1.579-2.682 2.798-.65 1.213-.975 2.573-.975 4.082 0 1.165.24 2.195.717 3.088A4.939 4.939 0 0 0 8.1 18.125c.914.476 1.977.714 3.189.714.888 0 1.789-.115 2.701-.344.914-.224 1.86-.598 2.838-1.122l.505 1.014c-.886.524-1.85.922-2.893 1.196a12.097 12.097 0 0 1-3.151.417c-1.477 0-2.77-.29-3.88-.871a5.983 5.983 0 0 1-2.535-2.455C4.291 15.607 4 14.38 4 12.992c0-1.69.38-3.227 1.14-4.61a8.167 8.167 0 0 1 3.18-3.223C9.673 4.386 11.189 4 12.866 4c1.478 0 2.753.274 3.824.822 1.073.544 1.89 1.313 2.454 2.308.57.998.856 2.155.856 3.47Zm-5.57.074c0-.617-.203-1.112-.607-1.487-.404-.38-.943-.57-1.616-.57-.62 0-1.17.193-1.655.58-.478.38-.855.91-1.13 1.593a5.766 5.766 0 0 0-.414 2.2c0 .724.144 1.292.433 1.703.293.409.743.614 1.35.614.766 0 1.467-.317 2.104-.95.638-.634 1.079-1.424 1.323-2.372.14-.556.211-.991.211-1.31Z"/><defs><radialGradient id="a" cx="0" cy="0" r="1" gradientTransform="rotate(116.565 8.441 5.908) scale(24.5967)" gradientUnits="userSpaceOnUse"><stop stop-color="#85C1EA"/><stop offset="1" stop-color="#3C90C9"/></radialGradient></defs></svg>
